X: 7130
T: Christmas, The
R: polka
M: 2/4
K: Gmajor
|:G/A/|BG DB,|CE E/D/C|B,/C/D G>B|cB A2|
BG D/E/D/B,/|CE- E D/C/|B,D G>B|AG G:|
|:d/c/|Bd dB|cd ed/c/|Bd GG/A/|BA A2|
B>c dG|c/B/c/d/ e>d|Bd A/B/c/A/|BG G:|

